assets/stackoverflow/plain.svg

<svg viewBox="0 0 128 128" xmlns="http://www.w3.org/2000/svg"><path d="m83.873 0-9.166 6.81 34.08 45.801 9.164-6.81zm-21.021 18.227-7.309 8.771 43.885 36.531 7.308-8.775zm-16.812 23.806-4.82 10.35 51.763 24.1 4.825-10.35zm-9.863 25.924-2.352 11.174 55.881 11.736 2.348-11.166zm-26.13 14.555v45.488h102.403v-45.488h-11.377l-.002 34.115h-79.643v-34.115h-11.38zm22.759 11.368v11.373h56.888v-11.373h-56.889z"/></svg>

<svg xmlns="http://www.w3.org/2000/svg" viewBox="0 0 128 128"><path d="m83.873 0-9.166 6.81 34.08 45.801 9.164-6.81zM62.852 18.227l-7.309 8.771 43.885 36.531 7.308-8.775zM46.04 42.033l-4.82 10.35 51.763 24.1 4.825-10.35zm-9.863 25.924-2.352 11.174 55.881 11.736 2.348-11.166zm-26.13 14.555V128H112.45V82.512h-11.377l-.002 34.115H21.428V82.512h-11.38zM32.806 93.88v11.373h56.888V93.88z"/></svg>
